X:35
T:P\'ainneach na nUbh
T: the Basket of Eggs
B:CRE II, Breathnach, no. 12 (i)
N:ornamentation omitted
R:double jig
M:6/8
L:1/8
N:F:http://trillian.mit.edu/~jc/music/abc/
N:F:continues Ireland/jig/BasketofEggs.abc
N:2003-07-02 17:56:53 UT
K:G
D|DBA ABd|edB AGE|GBA ABG|AGG GED|
DBA ABd|edB AGE|GBA ABG|AGG G2:|
|:f|edf edf|edf edB|ddd def|gfe def|
gb/a/g faf|edB AGE|GBA ABG|AGG G2:|
